svg/coach_lamp_variant.svg

<svg xmlns="http://www.w3.org/2000/svg" viewBox="0 0 24 24"><path d="M12.5 2 12 4l-2 2.31L5 9h2l2.5 9 2.5 2 .5 2h1l.5-2 2.5-2L19 9h2l-5-2.69L14 4l-.5-2M9 9h8l-2.22 8h-3.56M3 14v8h8.5l-.5-2H8l-3-3v-3Z"/></svg>

<svg xmlns="http://www.w3.org/2000/svg" id="mdi-coach-lamp-variant" viewBox="0 0 24 24"><path d="M12.5 2L12 4L10 6.31L5 9H7L9.5 18L12 20L12.5 22H13.5L14 20L16.5 18L19 9H21L16 6.31L14 4L13.5 2M9 9H17L14.78 17H11.22M3 14V22H11.5L11 20H8L5 17V14Z" /></svg>
